assets/img/svg/quote.svg

<svg width="40" height="40" viewBox="0 0 40 40" fill="none" xmlns="http://www.w3.org/2000/svg">
<path d="M35.3875 6.77409C35.3551 6.442 35.2005 6.1338 34.9536 5.90937C34.7067 5.68493 34.3851 5.5603 34.0515 5.55969H5.91347V5.56329C5.58668 5.57235 5.27441 5.70035 5.03529 5.92328C4.79616 6.1462 4.6466 6.44873 4.61467 6.77409H4.60107V29.3109H4.62827C4.68928 29.6094 4.84957 29.8783 5.08303 30.074C5.31649 30.2697 5.60935 30.3806 5.91387 30.3885V30.3921H10.5395V33.0897C10.5394 33.3789 10.6322 33.6605 10.8043 33.893C10.9764 34.1254 11.2186 34.2964 11.4952 34.3808C11.7719 34.4651 12.0683 34.4583 12.3408 34.3614C12.6133 34.2645 12.8474 34.0826 13.0087 33.8425L16.4595 30.3917H34.0515C34.3628 30.3917 34.6646 30.2841 34.9056 30.087C35.1466 29.89 35.312 29.6156 35.3739 29.3105H35.4011V6.77409H35.3875ZM11.3607 20.2645C10.1387 20.2645 9.04588 19.3025 9.04588 17.6117C9.04588 15.6605 10.1127 13.9181 11.7255 12.7737L11.7311 12.7785C11.771 12.757 11.8154 12.7454 11.8607 12.7445C11.9233 12.7457 11.9838 12.7677 12.0327 12.8069L12.0359 12.8041L13.1171 13.4865L13.1107 13.4925C13.1875 13.5449 13.2407 13.6285 13.2407 13.7285C13.2402 13.7809 13.2254 13.8322 13.1979 13.8768C13.1705 13.9214 13.1313 13.9577 13.0847 13.9817L13.0855 13.9825L13.0671 13.9937L13.0623 13.9965C12.2363 14.4461 11.3583 15.4869 11.1267 16.4149C11.2307 16.3629 11.4387 16.3369 11.6471 16.3369C12.6355 16.3369 13.4155 17.0909 13.4155 18.2093C13.4159 19.3281 12.4791 20.2645 11.3607 20.2645ZM16.6539 20.2645C15.4319 20.2645 14.3391 19.3025 14.3391 17.6117C14.3391 15.6605 15.4059 13.9181 17.0187 12.7737L17.0243 12.7785C17.0642 12.757 17.1086 12.7454 17.1539 12.7445C17.2165 12.7457 17.277 12.7677 17.3259 12.8069L17.3291 12.8041L18.4103 13.4865L18.4039 13.4925C18.4807 13.5449 18.5339 13.6285 18.5339 13.7285C18.5334 13.7809 18.5186 13.8322 18.4911 13.8768C18.4637 13.9214 18.4245 13.9577 18.3779 13.9817L18.3787 13.9825L18.3603 13.9937L18.3555 13.9965C17.5295 14.4461 16.6515 15.4869 16.4199 16.4149C16.5239 16.3629 16.7319 16.3369 16.9403 16.3369C17.9287 16.3369 18.7087 17.0909 18.7087 18.2093C18.7087 19.3281 17.7723 20.2645 16.6539 20.2645ZM22.9835 23.1393L22.9779 23.1345C22.938 23.156 22.8936 23.1676 22.8483 23.1685C22.7856 23.1672 22.7252 23.1453 22.6763 23.1061L22.6731 23.1089L21.5919 22.4265L21.5983 22.4205C21.5588 22.3949 21.5263 22.36 21.5037 22.3188C21.481 22.2776 21.4688 22.2315 21.4683 22.1845C21.4683 22.0737 21.5327 21.9801 21.6243 21.9313L21.6235 21.9305L21.6419 21.9193L21.6467 21.9165C22.4727 21.4669 23.3507 20.4261 23.5823 19.4981C23.4783 19.5501 23.2703 19.5761 23.0619 19.5761C22.0735 19.5761 21.2935 18.8221 21.2935 17.7037C21.2935 16.5849 22.2303 15.6489 23.3487 15.6489C24.5707 15.6489 25.6635 16.6109 25.6635 18.3017C25.6631 20.2525 24.5963 21.9949 22.9835 23.1393ZM28.2767 23.1393L28.2711 23.1345C28.2312 23.156 28.1868 23.1676 28.1415 23.1685C28.0788 23.1672 28.0184 23.1453 27.9695 23.1061L27.9663 23.1089L26.8851 22.4265L26.8915 22.4205C26.852 22.3949 26.8195 22.36 26.7969 22.3188C26.7742 22.2776 26.762 22.2315 26.7615 22.1845C26.7615 22.0737 26.8259 21.9801 26.9175 21.9313L26.9167 21.9305L26.9351 21.9193L26.9399 21.9165C27.7659 21.4669 28.6439 20.4261 28.8755 19.4981C28.7715 19.5501 28.5635 19.5761 28.3551 19.5761C27.3667 19.5761 26.5867 18.8221 26.5867 17.7037C26.5867 16.5849 27.5235 15.6489 28.6419 15.6489C29.8639 15.6489 30.9567 16.6109 30.9567 18.3017C30.9563 20.2525 29.8895 21.9949 28.2767 23.1393Z" fill="#F8CA21"/>
</svg>

<svg width="40" height="40" fill="none" xmlns="http://www.w3.org/2000/svg"><path d="M35.388 6.774A1.345 1.345 0 0 0 34.05 5.56H5.913v.003a1.342 1.342 0 0 0-1.298 1.211H4.6v22.537h.027a1.348 1.348 0 0 0 1.286 1.078v.003h4.626v2.698a1.35 1.35 0 0 0 2.469.752l3.45-3.45H34.05a1.35 1.35 0 0 0 1.323-1.081h.027V6.774h-.014zM11.36 20.264c-1.222 0-2.315-.962-2.315-2.652 0-1.951 1.067-3.694 2.68-4.838l.005.005a.285.285 0 0 1 .13-.034.284.284 0 0 1 .172.062l.003-.003 1.081.682-.006.006c.076.053.13.136.13.236a.288.288 0 0 1-.156.254l-.018.012-.005.002c-.826.45-1.704 1.49-1.935 2.419.104-.052.312-.078.52-.078.989 0 1.768.754 1.768 1.872a2.076 2.076 0 0 1-2.054 2.056zm5.293 0c-1.222 0-2.315-.962-2.315-2.652 0-1.951 1.067-3.694 2.68-4.838l.005.005a.285.285 0 0 1 .13-.034.284.284 0 0 1 .172.062l.003-.003 1.081.682-.006.006c.077.053.13.136.13.236a.288.288 0 0 1-.156.254l-.018.012-.005.002c-.826.45-1.704 1.49-1.935 2.419.104-.052.312-.078.52-.078.989 0 1.769.754 1.769 1.872a2.076 2.076 0 0 1-2.055 2.056zm6.33 2.875l-.006-.005a.285.285 0 0 1-.13.035.284.284 0 0 1-.172-.063l-.003.003-1.081-.683.006-.005a.284.284 0 0 1-.13-.236.29.29 0 0 1 .156-.254l.018-.012.005-.003c.826-.45 1.704-1.49 1.935-2.418-.104.052-.312.078-.52.078-.989 0-1.768-.754-1.768-1.872 0-1.12.936-2.055 2.055-2.055 1.222 0 2.314.962 2.314 2.653 0 1.95-1.067 3.693-2.68 4.837zm5.293 0l-.006-.005a.285.285 0 0 1-.13.035.284.284 0 0 1-.171-.063l-.004.003-1.08-.683.006-.005a.284.284 0 0 1-.13-.236c0-.111.064-.205.155-.254l.018-.012.005-.003c.826-.45 1.704-1.49 1.935-2.418-.104.052-.311.078-.52.078-.988 0-1.768-.754-1.768-1.872 0-1.12.936-2.055 2.055-2.055 1.222 0 2.315.962 2.315 2.653 0 1.95-1.067 3.693-2.68 4.837z" fill="#F8CA21"/></svg>
